X: 20
T: Harmony Club Waltz
C: Scott Joplin
%%abc-version 2.0
%%abcx-abcm2ps-target-version 5.9.1 (29 Sep 2008)
%%abc-creator hum2abc beta
%%abcx-conversion-date 2021/07/20 09:00:56
%%abc-copyright 2021 Craig Stuart Sapp
%%abc-edited-by Craig Stuart Sapp
%%abc-edited-by Craig Stuart Sapp
%%abcx-initial-encoding-date 2005/04/07
%%humdrum-veritas 4062938642
%%humdrum-veritas-data 1738349895
%%removed 0's from note length
%%linebreak <none>
%%barnumbers 0
L: 1/4
M: 4/4
N: Derived from harmony.krn
Q: "WALTZ." 1/4=120
%%staves {1 2}
V: 1 clef=treble
V: 2 clef=bass
K: Bb
[V:1] {/D-}[d2D2]{/D-}[d2D2] | 
[V:2] [F,/B,,/]B,/F,/D,/ [^F,/A,,/]C/A,/F,/ | 
[V:1] {/E-}[e2E2]{/=E-}[=e2=E2] | 
[V:2] [G,/G,,/]B,/G,/E,/ [G,/C,/]C/B,/G,/ | 
[V:1] !arpeggio![fcAF]!arpeggio![gcBG]!arpeggio![afcA]!arpeggio![afeA] | 
[V:2] [F,F,,][=E,=E,,][_E,_E,,][C,C,,] | 
[V:1] !arpeggio![bfdB]{/^c}d{/_g}f[bfdB] | 
[V:2] [B,,B,,,]{/^C}D{/_G}F[B,,B,,,] | 
[V:1] !arpeggio![b2_g2_d2B2]!arpeggio![_a2=d2B2] | 
[V:2] [_G,/_G,,/]_G/_D/B,/ [F,/F,,/]=D/B,/_A,/ | 
[V:1] !arpeggio![g2e2c2G2]!arpeggio![b2g2_d2B2] | 
[V:2] [E,/E,,/]E/C/G,/ [=E,/=E,,/]_D/B,/G,/ | 
[V:1] !arpeggio![fdBF]!arpeggio![dBFD]!arpeggio![gecA]!arpeggio![fecA] | 
[V:2] [F,F,,][B,B,,][F,F,,][FCA,F,] | 
[V:1] [bfdB][c'/g/e/c/][^c'/g/^c/][d'a^fd]!fermata![d'afd] ]|:  
[V:2] [B,B,,][G,/G,,/][E,/E,,/][D,D,,]!fermata![D,D,,] ]|:  
[V:1] [M:3/4][e2c2A2][fecA] | 
[V:2] [M:3/4]F,,[ECA,F,][ECA,F,] | 
[V:1] [g2e2c2A2][fecA] | 
[V:2] F,,[ECA,F,][ECA,F,] | 
[V:1] [d2B2][fdB] | 
[V:2] B,,[DB,F,][DB,F,] | 
[V:1] [g2d2][fdB] | 
[V:2] D,[DB,F,][DB,F,] | 
[V:1] [a/e/c/A/][aecA]<[aecA][a/e/c/A/] | 
[V:2] F,,[ECA,F,][ECA,F,] | 
[V:1] [a2e2c2A2][gecA] | 
[V:2] F,,[ECA,F,][ECA,F,] | 
[V:1] [g/d/B/][gdB]<[gdB][g/d/B/] | 
[V:2] B,,[DB,F,][DB,F,] | 
[V:1] [g3d3B3] | 
[V:2] D,[DB,F,][DB,F,] | 
[V:1] [e2c2A2][fecA] | 
[V:2] F,,[ECA,F,][ECA,F,] | 
[V:1] [g2e2c2A2][fecA] | 
[V:2] F,,[ECA,F,][ECA,F,] | 
[V:1] [d2B2][fdB] | 
[V:2] B,,[DB,F,][DB,F,] | 
[V:1] [g2d2B2][fd^G] | 
[V:2] B,,[DB,F,][=B,,=B,,,] | 
[V:1] [a/f/c/][a/f/c/][a2f2c2] | 
[V:2] [C,C,,][FCA,][FCA,] | 
[V:1] [g/=e/B/][g/e/B/][g2e2B2] | 
[V:2] [C,C,,][=ECB,][ECB,] | 
[V:1] f/c/a/f/c/A/ | 
[V:2] [F,F,,][FCA,][FCA,] | 
[V:1] F3 :|]|:  
[V:2] [F,F,,][_ECA,F,][ECA,F,] :|]|:  
[V:1] [f'/d'/b/f/][f'/d'/b/f/][f'/d'/b/f/][f'/d'/b/f/][f'/d'/b/f/][f'/d'/b/f/] | 
[V:2] B,,[DB,F,][DB,F,] | 
[V:1] [f'3d'3b3f3] | 
[V:2] B,,[DB,F,][DB,F,] | 
[V:1] [d'/b/f/d/][d'/b/f/d/][d'/b/f/d/][d'/b/f/d/][d'/b/f/d/][d'/b/f/d/] | 
[V:2] B,,[DB,F,][DB,F,] | 
[V:1] [d'3b3f3d3] | 
[V:2] B,,[DB,F,][DB,F,] | 
[V:1] G/g/e/B/G | 
[V:2] E,[EB,G,][EB,G,] | 
[V:1] _G/_g/e/B/G | 
[V:2] E,[EB,_G,][EB,G,] | 
[V:1] F/f/d/B/F | 
[V:2] D,[DB,F,][DB,F,] | 
[V:1] f/f'/d'/b/f | 
[V:2] B,,[DB,F,][DB,F,] | 
[V:1] [f'/d'/b/f/][f'/d'/b/f/][f'/d'/b/f/][f'/d'/b/f/][f'/d'/b/f/][f'/d'/b/f/] | 
[V:2] B,,[DB,F,][DB,F,] | 
[V:1] [f'3d'3b3f3] | 
[V:2] B,,[DB,F,][DB,F,] | 
[V:1] [d'/b/g/d/][d'/b/g/d/][d'/b/g/d/][d'/b/g/d/][d'/b/g/d/][d'/b/g/d/] | 
[V:2] [G,G,,][DB,G,][DB,G,] | 
[V:1] d/d'/b/g/d/_d/ | 
[V:2] [G,G,,][DB,G,][DB,G,] | 
[V:1] c{/dc} =B/c/=e/g/ | 
[V:2] [C,C,,][=ECB,][ECB,] | 
[V:1] c'/c/=e/g/c'/c/ | 
[V:2] [=E,=E,,][=ECB,][ECB,] | 
[V:1] f/F/G/^G/A/B/ | 
[V:2] [F,F,,][ECA,F,][ECA,F,] | 
[V:1] =B/c/^c/d/e/=e/ | 
[V:2] F,[ECA,][ECA,] | 
[V:1] [f'/d'/b/f/][f'/d'/b/f/][f'/d'/b/f/][f'/d'/b/f/][f'/d'/b/f/][f'/d'/b/f/] | 
[V:2] B,,[DB,F,][DB,F,] | 
[V:1] [f'3d'3b3f3] | 
[V:2] B,,[DB,F,][DB,F,] | 
[V:1] [d'/b/f/d/][d'/b/f/d/][d'/b/f/d/][d'/b/f/d/][d'/b/f/d/][d'/b/f/d/] | 
[V:2] B,,[DB,F,][DB,F,] | 
[V:1] [d'3b3f3d3] | 
[V:2] B,,[DB,F,][DB,F,] | 
[V:1] G/g/e/B/G | 
[V:2] E,[EB,G,][EB,G,] | 
[V:1] _G/_g/e/B/G | 
[V:2] E,[EB,_G,][EB,G,] | 
[V:1] F/f/d/B/F | 
[V:2] D,[DB,F,][DB,F,] | 
[V:1] f/f'/d'/b/f | 
[V:2] B,,[DB,F,][DB,F,] | 
[V:1] G/g/e/B/G | 
[V:2] E,[EB,G,][EB,G,] | 
[V:1] _G/_g/e/B/G | 
[V:2] E,[EB,_G,][EB,G,] | 
[V:1] F/f/d/B/F | 
[V:2] D,[DB,F,][DB,F,] | 
[V:1] f/f'/d'/b/f | 
[V:2] B,,[DB,F,][DB,F,] | 
[V:1] F/^F/G/^G/A/B/ | 
[V:2] [F,F,,][ECA,F,][ECA,F,] | 
[V:1] =B/c/^c/d/e/=e/ | 
[V:2] F,[ECA,][ECA,] | 
[V:1] [f'/c'/a/f/][f'/c'/a/f/][f'c'af][aecA] |[1 
[V:2] [F,F,,][ECA,F,][ECA,F,] | 
[V:1] [b2f2d2B2]z :|][2 
[V:2] B,,[DB,F,][DB,F,] :|]  
[V:1] [b2f2d2B2]z ]|: 
[V:2] [B,2F,2B,,2]z ]|:  
[V:1] B>AG | 
[V:2] [G,G,,][DB,G,][DB,G,] | 
[V:1] [d3B3G3] | 
[V:2] [G,G,,][DB,G,][DB,G,] | 
[V:1] e>dc | 
[V:2] C,[ECG,][ECG,] | 
[V:1] [g3e3c3] | 
[V:2] C,[ECG,][ECG,] | 
[V:1] [c2A2][A^F] | 
[V:2] D,[CA,^F,][CA,F,] | 
[V:1] [A3^F3] | 
[V:2] D,[CA,^F,][CA,F,] | 
[V:1] [B2G2]G | 
[V:2] [G,G,,][DB,G,][DB,G,] | 
[V:1] G3 | 
[V:2] [G,G,,][DB,G,][DB,G,] | 
[V:1] B>AG | 
[V:2] [G,G,,][DB,G,][DB,G,] | 
[V:1] [d3B3G3] | 
[V:2] [G,G,,][DB,G,][DB,G,] | 
[V:1] e>dc | 
[V:2] C,[ECG,][ECG,] | 
[V:1] [g3e3c3] | 
[V:2] C,[ECG,][ECG,] | 
[V:1] [c2A2][A^F] | 
[V:2] D,[CA,^F,][CA,F,] | 
[V:1] [A^F]>D=E/^F/ |[1 
[V:2] D,[CA,^F,][CA,F,] | 
[V:1] G>GB/d/ | 
[V:2] [G,G,,][DB,G,][DB,G,] | 
[V:1] [g2G2]z :|][2 
[V:2] [G,G,,][DB,G,][DB,G,] :|]  
[V:1] G>GB/d/ | 
[V:2] [G,G,,][DB,G,][DB,G,] | 
[V:1] [g2G2]z ]|: 
[V:2] [D2B,2G,2]z ]|:  
[V:1] F3 | 
[V:2] B,,[DB,F,][DB,F,] | 
[V:1] FBd | 
[V:2] B,,[DB,F,][DB,F,] | 
[V:1] {/F-}[f3F3] | 
[V:2] D,[DB,F,][DB,F,] | 
[V:1] {/_A-}[_a3A3] | 
[V:2] F,[DB,][DB,] | 
[V:1] {/G-}[g2G2][bB] | 
[V:2] E,[EB,G,][EB,G,] | 
[V:1] {/c-}[c'c]>[bB][gG] | 
[V:2] E,[EB,G,][EB,G,] | 
[V:1] [f3F3]- | 
[V:2] D,[DB,F,][DB,F,] | 
[V:1] [f3F3] | 
[V:2] B,,[DB,F,][DB,F,] | 
[V:1] !arpeggio![d'2a2^f2d2][afd] | 
[V:2] ^F,[DC][DC] | 
[V:1] !arpeggio![a3^f3d3] | 
[V:2] ^F,[DC][DC] | 
[V:1] !arpeggio![c'2g2d2]!arpeggio![bgd] | 
[V:2] G,[DB,][DB,] | 
[V:1] !arpeggio![b3g3d3] | 
[V:2] G,[DB,][DB,] | 
[V:1] {/G-}[g3G3] | 
[V:2] [=E,=E,,][=ECB,][ECB,] | 
[V:1] {/A-}[a2A2][bB] | 
[V:2] [C,C,,][=ECB,][ECB,] | 
[V:1] [c'c]f/_e/c/A/ | 
[V:2] [F,F,,][FCA,][FCA,] | 
[V:1] F3 | 
[V:2] F,[ECA,][ECA,] | 
[V:1] F3 | 
[V:2] B,,[DB,F,][DB,F,] | 
[V:1] FBd | 
[V:2] B,,[DB,F,][DB,F,] | 
[V:1] {/F-}[f3F3] | 
[V:2] D,[DB,F,][DB,F,] | 
[V:1] {/_A-}[_a3A3] | 
[V:2] F,[DB,][DB,] | 
[V:1] {/G-}[g2G2]{/B-}[bB] | 
[V:2] E,[EB,G,][EB,G,] | 
[V:1] {/c-}[c'c]>[bB][gG] | 
[V:2] E,[EB,G,][EB,G,] | 
[V:1] [f3F3]- | 
[V:2] D,[DB,F,][DB,F,] | 
[V:1] [f3F3] | 
[V:2] B,,[DB,F,][DB,F,] | 
[V:1] !arpeggio![d'2a2^f2d2][afd] | 
[V:2] ^F,[DC][DC] | 
[V:1] !arpeggio![a3^f3d3] | 
[V:2] ^F,[DC][DC] | 
[V:1] !arpeggio![c'2g2d2][bgd] | 
[V:2] G,[DB,][DB,] | 
[V:1] bag & ^c3 | 
[V:2] [^C3B,3G,3=E,3] | 
[V:1] [fF][bB][gG] | 
[V:2] [F,F,,][DB,F,][DB,F,] | 
[V:1] [aA][c'c][aA] |[1 
[V:2] [F,F,,][ECA,F,][ECF,] | 
[V:1] [bfdB]>[bfdB][bfdB] | 
[V:2] [B,B,,][F,F,,][D,D,,] | 
[V:1] [b2f2d2B2]B/d/ :|][2 
[V:2] [B,,B,,,][DB,F,][DB,F,] :|]  
[V:1] [bfdB]>[bfdB][bfdB] | 
[V:2] [B,B,,][F,F,,][D,D,,] | 
[V:1] [b2f2d2B2]z ]|: 
[V:2] [B,,2B,,,2]z ]|:  
[V:1]  [K:G] [=e2c2F2][ecF]- | 
[V:2]  [K:G] D,,[CA,^F,D,][CA,F,D,] | 
[V:1] [e3c3F3] | 
[V:2] D,,[CA,^F,D,][CA,F,D,] | 
[V:1] [e2=B2G2][eBG]- | 
[V:2] G,,[B,G,D,][B,G,D,] | 
[V:1] [e3B3G3] | 
[V:2] G,,[B,G,D,][B,G,D,] | 
[V:1] D/E<FG/ | 
[V:2] F,,[CA,^F,D,][CA,F,D,] | 
[V:1] [A3F3D3] | 
[V:2] D,,[CA,^F,D,][CA,F,D,] | 
[V:1] G/A<Bc/ | 
[V:2] G,,[B,G,D,][B,G,D,] | 
[V:1] [d3B3G3] | 
[V:2] G,,[B,G,D,][B,G,D,] | 
[V:1] [e2c2F2][ecF]- | 
[V:2] D,,[CA,^F,D,][CA,F,D,] | 
[V:1] [e3c3F3] | 
[V:2] D,,[CA,^F,D,][CA,F,D,] | 
[V:1] [e2B2G2][eBG]- | 
[V:2] G,,[B,G,D,][B,G,D,] | 
[V:1] [e3B3G3] | 
[V:2] G,,[B,G,D,][B,G,D,] | 
[V:1] e/f/g2 | 
[V:2] ^C,[^A,G,E,][A,G,E,] | 
[V:1] d/g/b2 | 
[V:2] D,[B,G,][B,G,] | 
[V:1] [a/f/c/][afc]<[afc][a/f/c/] |[1 
[V:2] D,[CA,^F,][CA,F,] | 
[V:1] [g2B2]z :|][2 
[V:2] [G,G,,][B,G,D,][B,G,D,] :|]  
[V:1] [g2B2]g ]|: 
[V:2] [D2B,2G,2]z ]|:  
[V:1]  [K:C] g/f/e/d/c/B/ | 
[V:2]  [K:C] B,,[FB,G,][FB,G,] | 
[V:1] A/G/A/B/c/d/ | 
[V:2] G,,[FB,G,][FB,G,] | 
[V:1] e/f<ge/ | 
[V:2] C,[ECG,][ECG,] | 
[V:1] g3 | 
[V:2] E,[ECG,][ECG,] | 
[V:1] B/d<gd/ | 
[V:2] D,[FB,G,][FB,G,] | 
[V:1] g3 | 
[V:2] G,,[FB,G,][FB,G,] | 
[V:1] c/e<ge/ | 
[V:2] C,[ECG,][ECG,] | 
[V:1] g2g | 
[V:2] E,[ECG,][ECG,] | 
[V:1] g/f/e/d/c/B/ | 
[V:2] B,,[FB,G,][FB,G,] | 
[V:1] A/G/A/B/c/d/ | 
[V:2] G,,[FB,G,][FB,G,] | 
[V:1] e/f<ge/ | 
[V:2] C,[ECG,][ECG,] | 
[V:1] g3 | 
[V:2] E,[ECG,][ECG,] | 
[V:1] d/f<ad/ | 
[V:2] F,[DA,][DA,] | 
[V:1] g2B |[1 
[V:2] [G,G,,][FB,G,][FB,G,] | 
[V:1] cB/c/e/g/ | 
[V:2] C,[ECG,][ECG,] | 
[V:1] c'2g :|][2 
[V:2] C,[ECG,][ECG,] :|]  
[V:1] c/e/g/c'/e'/g'/ | 
[V:2] C,G,,E,, | 
[V:1] [c''2c'2]z ]|: 
[V:2] C,,2z ]|:  
[V:1]  [K:F] A/d/c/a/f/c/ | 
[V:2]  [K:F] F,[FCA,][FCA,] | 
[V:1] A/d/c/a/_e/c/ | 
[V:2] ^F,[_ECA,][ECA,] | 
[V:1] B/g/d/b/g/d/ | 
[V:2] G,[DB,][DB,] | 
[V:1] B/g/d/b/g/d/ | 
[V:2] G,[DB,][DB,] | 
[V:1] c/c'/b/g/c'/b/ | 
[V:2] E,[ECB,][ECB,] | 
[V:1] c/a/g/c/a/g/ | 
[V:2] C,[ECB,][ECB,] | 
[V:1] f/a/^g/a/c'/f/ | 
[V:2] F,[FCA,][FCA,] | 
[V:1] a3 | 
[V:2] C,[FCA,][FCA,] | 
[V:1] A/d/c/a/f/c/ | 
[V:2] F,[FCA,][FCA,] | 
[V:1] A/d/c/a/_e/c/ | 
[V:2] ^F,[_ECA,][ECA,] | 
[V:1] B/g/d/b/g/d/ | 
[V:2] G,[DB,][DB,] | 
[V:1] d/f/=B/d/f/d/ | 
[V:2] =B,,[FD=B,^G,][FDB,G,] | 
[V:1] c/c'/a/f/c/f/ | 
[V:2] C,[FCA,][FCA,] | 
[V:1] c/a/g/c/a/g/ |[1 
[V:2] E,[ECB,][ECB,] | 
[V:1] [fcA][c'c][d'd] | 
[V:2] [F,F,,][A,,A,,,][B,,B,,,] | 
[V:1] [c'c][=b=B][_b_B] :|][2 
[V:2] [C,C,,][D,D,,][E,E,,] :|]  
[V:1] [f/c/A/]A/c/f/[a/c/][g/B/] | 
[V:2] [F,F,,]A,,C, | 
[V:1] [f2c2A2]z |]  
[V:2] [F,2F,,2]z |]  


